X: 122007
T: FRENCH AIR
P: Same figure.
%R: reel
B: James Kerr "Merry Melodies" v.1 p.22 s.0 #7
Z: 2017 John Chambers <jc:trillian.mit.edu>
M: 2/4
L: 1/16
K: D
|: (ab) |\
a2f2d2e2 | f6 f2 |\
e2g2f2e2 | (f4 d2)(ab) |\
a2f2d2e2 | f6 f2 |\
e2g2f2e2 | d6 H::\
(ucd) |\
ve2A2 e4 | uf2A2 f4 |\
vg2gf e2a2 | (uf4 d2)cd |\
e2A2 e4 | f2A2 f4 |\
e2dc B2e2 | A2z2 "_D.C."a2 :|

%%sep 1 1 500
%%sep 1 1 500

